testimages/rawtest/DSC06830.xmp
<x:xmpmeta xmlns:x="adobe:ns:meta/" x:xmptk="Adobe XMP Core 7.0-c000 1.000000, 0000/00/00-00:00:00        ">
 <rdf:RDF xmlns:rdf="http://www.w3.org/1999/02/22-rdf-syntax-ns#">
  <rdf:Description rdf:about=""
    xmlns:xmp="http://ns.adobe.com/xap/1.0/"
    xmlns:tiff="http://ns.adobe.com/tiff/1.0/"
    xmlns:exif="http://ns.adobe.com/exif/1.0/"
    xmlns:aux="http://ns.adobe.com/exif/1.0/aux/"
    xmlns:exifEX="http://cipa.jp/exif/1.0/"
    xmlns:photoshop="http://ns.adobe.com/photoshop/1.0/"
    xmlns:xmpMM="http://ns.adobe.com/xap/1.0/mm/"
    xmlns:stEvt="http://ns.adobe.com/xap/1.0/sType/ResourceEvent#"
    xmlns:dc="http://purl.org/dc/elements/1.1/"
    xmlns:crd="http://ns.adobe.com/camera-raw-defaults/1.0/"
    xmlns:crs="http://ns.adobe.com/camera-raw-settings/1.0/"
   xmp:Rating="0"
   xmp:CreatorTool="ILCE-7M4 v1.01"
   xmp:ModifyDate="2025-03-14T19:04:03.990-05:00"
   xmp:CreateDate="2025-03-14T19:04:03.990-05:00"
   xmp:MetadataDate="2025-03-20T04:24:06-04:00"
   tiff:Make="SONY"
   tiff:Model="ILCE-7M4"
   tiff:Orientation="1"
   exif:ExifVersion="0232"
   exif:ExposureTime="1/40"
   exif:ShutterSpeedValue="5321928/1000000"
   exif:FNumber="28/10"
   exif:ApertureValue="2970854/1000000"
   exif:ExposureProgram="1"
   exif:SensitivityType="2"
   exif:RecommendedExposureIndex="10000"
   exif:BrightnessValue="-8206/2560"
   exif:ExposureBiasValue="7/10"
   exif:MaxApertureValue="760/256"
   exif:MeteringMode="2"
   exif:LightSource="14"
   exif:FocalLength="230/10"
   exif:FileSource="3"
   exif:SceneType="1"
   exif:FocalLengthIn35mmFilm="23"
   exif:CustomRendered="0"
   exif:ExposureMode="1"
   exif:WhiteBalance="1"
   exif:SceneCaptureType="0"
   exif:Contrast="0"
   exif:Saturation="0"
   exif:Sharpness="1"
   exif:DigitalZoomRatio="16/16"
   exif:FocalPlaneXResolution="64449339/32768"
   exif:FocalPlaneYResolution="64449339/32768"
   exif:FocalPlaneResolutionUnit="3"
   exif:DateTimeOriginal="2025-03-14T19:04:03.990-05:00"
   aux:LensInfo="160/10 250/10 28/10 28/10"
   aux:Lens="FE 16-25mm F2.8 G"
   aux:LensDistortInfo="33302/32768 -69161211/1073741824 42204356/1073741824 -9706224/1073741824"
   exifEX:LensModel="FE 16-25mm F2.8 G"
   photoshop:DateCreated="2025-03-14T19:04:03.990-05:00"
   photoshop:SidecarForExtension="ARW"
   photoshop:EmbeddedXMPDigest="4900BC77CB0DBCA80610989F7ACC9AF8"
   xmpMM:DocumentID="B726C843B9B15F4DB6A22C7F642285AD"
   xmpMM:OriginalDocumentID="B726C843B9B15F4DB6A22C7F642285AD"
   xmpMM:InstanceID="xmp.iid:58597b36-46d1-e44e-b205-b707d40d1d84"
   dc:format="image/x-sony-arw"
   crd:CameraProfile="Camera PT"
   crd:LookName=""
   crs:Version="16.4"
   crs:ProcessVersion="15.4"
   crs:WhiteBalance="Custom"
   crs:Temperature="4250"
   crs:Tint="+9"
   crs:Exposure2012="+0.25"
   crs:Contrast2012="-7"
   crs:Highlights2012="-14"
   crs:Shadows2012="+8"
   crs:Whites2012="+5"
   crs:Blacks2012="+5"
   crs:Texture="0"
   crs:Clarity2012="-8"
   crs:Dehaze="0"
   crs:Vibrance="0"
   crs:Saturation="0"
   crs:ParametricShadows="0"
   crs:ParametricDarks="0"
   crs:ParametricLights="0"
   crs:ParametricHighlights="0"
   crs:ParametricShadowSplit="25"
   crs:ParametricMidtoneSplit="50"
   crs:ParametricHighlightSplit="75"
   crs:Sharpness="29"
   crs:SharpenRadius="+1.0"
   crs:SharpenDetail="25"
   crs:SharpenEdgeMasking="0"
   crs:LuminanceSmoothing="14"
   crs:LuminanceNoiseReductionDetail="50"
   crs:LuminanceNoiseReductionContrast="0"
   crs:ColorNoiseReduction="36"
   crs:ColorNoiseReductionDetail="50"
   crs:ColorNoiseReductionSmoothness="50"
   crs:HueAdjustmentRed="+7"
   crs:HueAdjustmentOrange="-4"
   crs:HueAdjustmentYellow="-14"
   crs:HueAdjustmentGreen="+7"
   crs:HueAdjustmentAqua="0"
   crs:HueAdjustmentBlue="-11"
   crs:HueAdjustmentPurple="0"
   crs:HueAdjustmentMagenta="0"
   crs:SaturationAdjustmentRed="0"
   crs:SaturationAdjustmentOrange="+14"
   crs:SaturationAdjustmentYellow="-14"
   crs:SaturationAdjustmentGreen="-25"
   crs:SaturationAdjustmentAqua="0"
   crs:SaturationAdjustmentBlue="0"
   crs:SaturationAdjustmentPurple="0"
   crs:SaturationAdjustmentMagenta="-22"
   crs:LuminanceAdjustmentRed="+4"
   crs:LuminanceAdjustmentOrange="+11"
   crs:LuminanceAdjustmentYellow="+11"
   crs:LuminanceAdjustmentGreen="-14"
   crs:LuminanceAdjustmentAqua="0"
   crs:LuminanceAdjustmentBlue="-14"
   crs:LuminanceAdjustmentPurple="0"
   crs:LuminanceAdjustmentMagenta="0"
   crs:SplitToningShadowHue="37"
   crs:SplitToningShadowSaturation="2"
   crs:SplitToningHighlightHue="37"
   crs:SplitToningHighlightSaturation="4"
   crs:SplitToningBalance="0"
   crs:ColorGradeMidtoneHue="0"
   crs:ColorGradeMidtoneSat="0"
   crs:ColorGradeShadowLum="0"
   crs:ColorGradeMidtoneLum="0"
   crs:ColorGradeHighlightLum="0"
   crs:ColorGradeBlending="50"
   crs:ColorGradeGlobalHue="0"
   crs:ColorGradeGlobalSat="0"
   crs:ColorGradeGlobalLum="0"
   crs:AutoLateralCA="1"
   crs:LensProfileEnable="0"
   crs:LensManualDistortionAmount="0"
   crs:VignetteAmount="0"
   crs:DefringePurpleAmount="0"
   crs:DefringePurpleHueLo="30"
   crs:DefringePurpleHueHi="70"
   crs:DefringeGreenAmount="0"
   crs:DefringeGreenHueLo="40"
   crs:DefringeGreenHueHi="60"
   crs:PerspectiveUpright="0"
   crs:PerspectiveVertical="0"
   crs:PerspectiveHorizontal="0"
   crs:PerspectiveRotate="0.0"
   crs:PerspectiveAspect="0"
   crs:PerspectiveScale="100"
   crs:PerspectiveX="0.00"
   crs:PerspectiveY="0.00"
   crs:GrainAmount="0"
   crs:PostCropVignetteAmount="0"
   crs:ShadowTint="0"
   crs:RedHue="0"
   crs:RedSaturation="0"
   crs:GreenHue="0"
   crs:GreenSaturation="0"
   crs:BlueHue="0"
   crs:BlueSaturation="0"
   crs:HDREditMode="0"
   crs:CurveRefineSaturation="100"
   crs:OverrideLookVignette="False"
   crs:ToneCurveName2012="Custom"
   crs:CameraProfile="Adobe Standard"
   crs:CameraProfileDigest="A4DC20C59DE4E2DF67946B80BFDA0801"
   crs:LensProfileSetup="LensDefaults"
   crs:LensProfileName="Adobe (Sony FE 16-25mm F2.8 G)"
   crs:LensProfileFilename="SONY (Sony FE 16-25mm F2.8 G) - RAW.lcp"
   crs:LensProfileDigest="9123A041AEA52D8FCF2C19245BB2DAEA"
   crs:LensProfileIsEmbedded="False"
   crs:LensProfileDistortionScale="100"
   crs:LensProfileVignettingScale="100"
   crs:HasSettings="True"
   crs:HasCrop="False"
   crs:AlreadyApplied="False">
   <exif:ISOSpeedRatings>
    <rdf:Seq>
     <rdf:li>10000</rdf:li>
    </rdf:Seq>
   </exif:ISOSpeedRatings>
   <exif:Flash
    exif:Fired="False"
    exif:Return="0"
    exif:Mode="2"
    exif:Function="False"
    exif:RedEyeMode="False"/>
   <xmpMM:History>
    <rdf:Seq>
     <rdf:li
      stEvt:action="saved"
      stEvt:instanceID="xmp.iid:58597b36-46d1-e44e-b205-b707d40d1d84"
      stEvt:when="2025-03-20T04:24:06-04:00"
      stEvt:softwareAgent="Adobe Photoshop Camera Raw 16.4 (Windows)"
      stEvt:changed="/metadata"/>
    </rdf:Seq>
   </xmpMM:History>
   <crs:ToneCurvePV2012>
    <rdf:Seq>
     <rdf:li>0, 3</rdf:li>
     <rdf:li>65, 61</rdf:li>
     <rdf:li>132, 136</rdf:li>
     <rdf:li>226, 234</rdf:li>
     <rdf:li>255, 255</rdf:li>
    </rdf:Seq>
   </crs:ToneCurvePV2012>
   <crs:ToneCurvePV2012Red>
    <rdf:Seq>
     <rdf:li>0, 0</rdf:li>
     <rdf:li>133, 127</rdf:li>
     <rdf:li>255, 255</rdf:li>
    </rdf:Seq>
   </crs:ToneCurvePV2012Red>
   <crs:ToneCurvePV2012Green>
    <rdf:Seq>
     <rdf:li>0, 0</rdf:li>
     <rdf:li>62, 58</rdf:li>
     <rdf:li>255, 255</rdf:li>
    </rdf:Seq>
   </crs:ToneCurvePV2012Green>
   <crs:ToneCurvePV2012Blue>
    <rdf:Seq>
     <rdf:li>0, 0</rdf:li>
     <rdf:li>188, 184</rdf:li>
     <rdf:li>255, 255</rdf:li>
    </rdf:Seq>
   </crs:ToneCurvePV2012Blue>
   <crs:PointColors>
    <rdf:Seq>
     <rdf:li>-1.000000, -1.000000, -1.000000, -1.000000, -1.000000, -1.000000, -1.000000, -1.000000, -1.000000, -1.000000, -1.000000, -1.000000, -1.000000, -1.000000, -1.000000, -1.000000, -1.000000, -1.000000, -1.000000</rdf:li>
    </rdf:Seq>
   </crs:PointColors>
   <crs:Look>
    <rdf:Description
     crs:Name="Adobe Portrait"
     crs:Amount="1"
     crs:UUID="D6496412E06A83789C499DF9540AA616"
     crs:SupportsAmount="false"
     crs:SupportsMonochrome="false"
     crs:SupportsOutputReferred="false"
     crs:Copyright="© 2018 Adobe Systems, Inc.">
    <crs:Group>
     <rdf:Alt>
      <rdf:li xml:lang="x-default">Profiles</rdf:li>
     </rdf:Alt>
    </crs:Group>
    <crs:Parameters>
     <rdf:Description
      crs:Version="16.4"
      crs:ProcessVersion="15.4"
      crs:ConvertToGrayscale="False"
      crs:CameraProfile="Adobe Standard"
      crs:LookTable="E5A76DBB8B3F132A04C01AF45DC2EF1B">
     <crs:ToneCurvePV2012>
      <rdf:Seq>
       <rdf:li>0, 0</rdf:li>
       <rdf:li>66, 64</rdf:li>
       <rdf:li>190, 192</rdf:li>
       <rdf:li>255, 255</rdf:li>
      </rdf:Seq>
     </crs:ToneCurvePV2012>
     </rdf:Description>
    </crs:Parameters>
    </rdf:Description>
   </crs:Look>
  </rdf:Description>
 </rdf:RDF>
</x:xmpmeta>
